brandFactory_export/3.Masa/Disco duro_3Masa.svg

<?xml version="1.0" encoding="UTF-8"?>
<svg width="24px" height="24px" viewBox="0 0 24 24" version="1.1" xmlns="http://www.w3.org/2000/svg" xmlns:xlink="http://www.w3.org/1999/xlink">
    <title>3.Masa/Disco duro_3Masa</title>
    <g id="Symbols" stroke="none" stroke-width="1" fill="none" fill-rule="evenodd">
        <g id="3.Masa/Disco-duro_3Masa" fill="#5CB615" fill-rule="nonzero">
            <path d="M11.8117647,8.35294118 C12.9243697,8.35294118 12.9243697,7.88571429 12.9243697,7.68739496 C12.9243697,7.48907563 12.9243697,7.01848739 11.8117647,7.01848739 C10.6991597,7.01848739 10.6991597,7.48571429 10.6991597,7.68739496 C10.6991597,7.88907563 10.6991597,8.35294118 11.8117647,8.35294118 Z M11.8117647,6.0302521 C13.7042017,6.0302521 13.9092437,7.18655462 13.9092437,7.68403361 C13.9092437,8.18151261 13.7042017,9.33781513 11.8117647,9.33781513 C9.91932773,9.33781513 9.71764706,8.18151261 9.71764706,7.68403361 C9.71764706,7.18655462 9.91932773,6.0302521 11.8117647,6.0302521 L11.8117647,6.0302521 Z M4.69243697,3.12605042 C4.11092437,3.12605042 3.77478992,2.91428571 3.77478992,2.46386555 C3.77478992,2.01008403 4.11428571,1.79831933 4.69243697,1.79831933 C5.27058824,1.79831933 5.61008403,2.01008403 5.61008403,2.46386555 C5.61008403,2.91428571 5.27394958,3.12605042 4.69243697,3.12605042 Z M18.4672269,1.79831933 C19.0453782,1.79831933 19.3848739,2.01008403 19.3848739,2.46386555 C19.3848739,2.91428571 19.0453782,3.12605042 18.4672269,3.12605042 C17.8857143,3.12605042 17.5495798,2.91428571 17.5495798,2.46386555 C17.5462185,2.01008403 17.8857143,1.79831933 18.4672269,1.79831933 Z M19.5159664,13.3109244 C19.5159664,12.8571429 19.8554622,12.6453782 20.4336134,12.6453782 C21.0117647,12.6453782 21.3512605,12.8571429 21.3512605,13.3109244 C21.3512605,13.7613445 21.0117647,13.9731092 20.4336134,13.9731092 C19.8521008,13.9764706 19.5159664,13.7613445 19.5159664,13.3109244 Z M11.8117647,11.5058824 C17.3781513,11.5058824 17.3781513,8.63193277 17.3781513,7.68739496 C17.3781513,6.74285714 17.3781513,3.86554622 11.8117647,3.86554622 C6.24537815,3.86554622 6.24537815,6.74285714 6.24537815,7.68739496 C6.24537815,8.20840336 6.32268908,8.68571429 6.47394958,9.09579832 C6.47731092,9.09915966 6.47394958,9.10588235 6.47731092,9.1092437 C7.10252101,8.8605042 7.66722689,8.77310924 8.03361345,9.01512605 C8.2789916,9.17310924 8.42689076,9.42521008 8.45042017,9.72436975 C8.47731092,10.0436975 8.34285714,10.4302521 8.1210084,10.8336134 L8.14789916,10.8470588 C9.05882353,11.2840336 10.292437,11.5058824 11.8117647,11.5058824 L11.8117647,11.5058824 Z M11.8117647,2.38319328 C17.9394958,2.38319328 18.8537815,5.70420168 18.8537815,7.68403361 C18.8537815,9.66386555 17.9394958,12.9815126 11.8117647,12.9815126 C10.0705882,12.9815126 8.62184874,12.712605 7.51260504,12.1781513 L7.33109244,12.087395 C7.31092437,12.0773109 7.29747899,12.0571429 7.27731092,12.0436975 C6.50084034,12.9983193 5.61344538,13.8151261 5.54621849,13.8756303 C5.12268908,14.2655462 4.62857143,14.4605042 4.11764706,14.4605042 C3.70084034,14.4605042 3.27058824,14.3294118 2.8605042,14.0638655 C2.23865546,13.6571429 2.07394958,13.2067227 2.05042017,12.9008403 C2.02689076,12.6016807 2.10420168,12.1478992 2.61848739,11.6773109 C2.64201681,11.6571429 3.86554622,10.5815126 5.18991597,9.76806723 C5.15294118,9.71428571 5.1092437,9.66722689 5.08571429,9.6 C4.87394958,9.02521008 4.76638655,8.37647059 4.76638655,7.68067227 C4.7697479,5.70420168 5.68403361,2.38319328 11.8117647,2.38319328 Z M22.1210084,14.8134454 C22.2352941,14.8134454 22.3462185,14.8302521 22.4504202,14.8537815 L20.7865546,1.6302521 C20.7193277,1.27394958 20.4571429,1.00504202 20.1546218,1.00504202 L3.47226891,0.98487395 C3.18655462,0.98487395 2.95462185,1.22016807 2.95462185,1.50588235 L1.17647059,14.8504202 C1.28403361,14.8268908 1.39495798,14.810084 1.50588235,14.810084 L22.1210084,14.810084 L22.1210084,14.8134454 Z M19.5697479,20.8 C20.3831933,20.8 20.887395,20.2957983 20.887395,19.4789916 C20.887395,18.6655462 20.3831933,18.1579832 19.5697479,18.1579832 C18.7563025,18.1579832 18.2521008,18.6621849 18.2521008,19.4789916 C18.2521008,20.292437 18.7563025,20.8 19.5697479,20.8 Z M23.6201681,16.2722689 C23.6201681,16.2890756 23.6235294,16.302521 23.6235294,16.3193277 L23.6235294,22.1142857 C23.6235294,22.9445378 22.9512605,23.6235294 22.1210084,23.6235294 L1.50252101,23.6235294 C0.672268908,23.6235294 0,22.9478992 0,22.1142857 L0,16.3193277 C0,16.2890756 0.00672268908,16.2655462 0.00672268908,16.2352941 C0.00672268908,16.2151261 0.00336134454,16.1983193 0.00336134454,16.1781513 L1.9697479,1.44201681 C1.96638655,0.678991597 2.63865546,0 3.46890756,0 L20.1512605,0.0201680672 C20.9378151,0.0201680672 21.5966387,0.618487395 21.7546218,1.4789916 L23.5831933,16 C23.5966387,16.0537815 23.6,16.1109244 23.6033613,16.1647059 L23.6134454,16.2588235 C23.6201681,16.2621849 23.6201681,16.2689076 23.6201681,16.2722689 Z" id="Disco-duro_3Masa"></path>
        </g>
    </g>
</svg>

<svg width="24" height="24" viewBox="0 0 24 24" xmlns="http://www.w3.org/2000/svg"><path d="M11.812 8.353c1.112 0 1.112-.467 1.112-.666 0-.198 0-.669-1.112-.669-1.113 0-1.113.468-1.113.67 0 .201 0 .665 1.113.665zm0-2.323c1.892 0 2.097 1.157 2.097 1.654 0 .498-.205 1.654-2.097 1.654-1.893 0-2.094-1.156-2.094-1.654 0-.497.201-1.654 2.094-1.654zm-7.12-2.904c-.581 0-.917-.212-.917-.662 0-.454.34-.666.917-.666.579 0 .918.212.918.666 0 .45-.336.662-.918.662zm13.775-1.328c.578 0 .918.212.918.666 0 .45-.34.662-.918.662-.581 0-.917-.212-.917-.662-.004-.454.336-.666.917-.666zm1.049 11.513c0-.454.34-.666.918-.666.578 0 .917.212.917.666 0 .45-.34.662-.917.662-.582.003-.918-.212-.918-.662zm-7.704-1.805c5.566 0 5.566-2.874 5.566-3.819 0-.944 0-3.821-5.566-3.821-5.567 0-5.567 2.877-5.567 3.821 0 .521.078.999.229 1.409.003.003 0 .01.003.013.626-.248 1.19-.336 1.557-.094.245.158.393.41.416.71.027.319-.107.705-.329 1.109l.027.013c.91.437 2.144.659 3.664.659zm0-9.123c6.127 0 7.042 3.321 7.042 5.301s-.915 5.298-7.042 5.298c-1.741 0-3.19-.27-4.3-.804l-.18-.09c-.021-.01-.035-.03-.055-.044a19.041 19.041 0 01-1.73 1.832c-.424.39-.918.585-1.43.585-.416 0-.846-.132-1.256-.397-.622-.407-.787-.857-.81-1.163-.024-.3.053-.753.567-1.224.024-.02 1.248-1.095 2.572-1.909-.037-.054-.08-.1-.104-.168a5.554 5.554 0 01-.32-1.92c.004-1.976.918-5.297 7.046-5.297zm10.309 12.43c.114 0 .225.017.33.04L20.786 1.63c-.068-.356-.33-.625-.632-.625L3.472.985a.52.52 0 00-.517.52L1.176 14.85a1.55 1.55 0 01.33-.04H22.12v.003zM19.57 20.8c.813 0 1.317-.504 1.317-1.321 0-.813-.504-1.321-1.317-1.321-.814 0-1.318.504-1.318 1.321 0 .813.504 1.321 1.318 1.321zm4.05-4.528c0 .017.004.03.004.047v5.795c0 .83-.673 1.51-1.503 1.51H1.503c-.83 0-1.503-.676-1.503-1.51V16.32c0-.03.007-.053.007-.084 0-.02-.004-.037-.004-.057L1.97 1.442C1.966.679 2.639 0 3.469 0L20.15.02c.787 0 1.446.598 1.604 1.459L23.583 16c.014.054.017.11.02.165l.01.094c.007.003.007.01.007.013z" fill="#5CB615" fill-rule="nonzero"/></svg>
